ui/StatusQ/src/assets/img/icons/star-icon.svg

<svg fill="none" height="13" viewBox="0 0 14 13" width="14" xmlns="http://www.w3.org/2000/svg"><path clip-rule="evenodd" d="m8.85169 4.58357-1.54375-3.711621c-.11386-.273764-.50168-.273764-.61554 0l-1.54375 3.711621-4.00701.32124c-.295551.02369-.415393.39253-.190214.58542l3.052914 2.61515-.93271 3.91012c-.0688.2884.24495.5164.49798.3618l3.43056-2.0953 3.43053 2.0953c.2531.1546.5668-.0734.498-.3618l-.9327-3.91012 3.0529-2.61515c.2252-.19289.1054-.56173-.1902-.58542z" fill="#fe8f59" fill-rule="evenodd"/></svg>

<svg width="14" height="13" viewBox="0 0 14 13" fill="none" xmlns="http://www.w3.org/2000/svg">
<path fill-rule="evenodd" clip-rule="evenodd" d="M8.85169 4.58357L7.30794 0.871949C7.19408 0.598185 6.80626 0.598185 6.6924 0.871949L5.14865 4.58357L1.14164 4.90481C0.846089 4.9285 0.726247 5.29734 0.951426 5.49023L4.00434 8.10538L3.07163 12.0155C3.00283 12.3039 3.31658 12.5319 3.56961 12.3773L7.00017 10.282L10.4307 12.3773C10.6838 12.5319 10.9975 12.3039 10.9287 12.0155L9.996 8.10538L13.0489 5.49023C13.2741 5.29734 13.1543 4.9285 12.8587 4.90481L8.85169 4.58357Z" fill="#FE8F59"/>
</svg>
